public/static/icons/editor/list_unordered.svg

<svg height="24" viewBox="0 0 24 24" width="24" xmlns="http://www.w3.org/2000/svg"><path d="m2.4 1.2c1.3254834 0 2.4 1.0745166 2.4 2.4s-1.0745166 2.4-2.4 2.4-2.4-1.0745166-2.4-2.4 1.0745166-2.4 2.4-2.4zm20.4 1.2c.6627417 0 1.2.5372583 1.2 1.2s-.5372583 1.2-1.2 1.2h-13.6c-.6627417 0-1.2-.5372583-1.2-1.2s.5372583-1.2 1.2-1.2zm-20.4 7.2c1.3254834 0 2.4 1.0745166 2.4 2.4s-1.0745166 2.4-2.4 2.4-2.4-1.0745166-2.4-2.4 1.0745166-2.4 2.4-2.4zm20.4 1.2c.6627417 0 1.2.5372583 1.2 1.2s-.5372583 1.2-1.2 1.2h-13.6c-.6627417 0-1.2-.5372583-1.2-1.2s.5372583-1.2 1.2-1.2zm-20.4 7.2c1.3254834 0 2.4 1.0745166 2.4 2.4s-1.0745166 2.4-2.4 2.4-2.4-1.0745166-2.4-2.4 1.0745166-2.4 2.4-2.4zm20.4 1.2c.6627417 0 1.2.5372583 1.2 1.2s-.5372583 1.2-1.2 1.2h-13.6c-.6627417 0-1.2-.5372583-1.2-1.2s.5372583-1.2 1.2-1.2z" fill-rule="evenodd"/></svg>

<svg xmlns="http://www.w3.org/2000/svg" width="24" height="24" viewBox="0 0 24 24">
  <path fill-rule="evenodd" d="M2.4 1.2C3.7254834 1.2 4.8 2.2745166 4.8 3.6 4.8 4.9254834 3.7254834 6 2.4 6 1.0745166 6 9.32587341e-15 4.9254834 9.32587341e-15 3.6 9.32587341e-15 2.2745166 1.0745166 1.2 2.4 1.2zM22.8 2.4C23.4627417 2.4 24 2.9372583 24 3.6 24 4.2627417 23.4627417 4.8 22.8 4.8L9.2 4.8C8.5372583 4.8 8 4.2627417 8 3.6 8 2.9372583 8.5372583 2.4 9.2 2.4L22.8 2.4zM2.4 9.6C3.7254834 9.6 4.8 10.6745166 4.8 12 4.8 13.3254834 3.7254834 14.4 2.4 14.4 1.0745166 14.4 9.32587341e-15 13.3254834 9.32587341e-15 12 9.32587341e-15 10.6745166 1.0745166 9.6 2.4 9.6zM22.8 10.8C23.4627417 10.8 24 11.3372583 24 12 24 12.6627417 23.4627417 13.2 22.8 13.2L9.2 13.2C8.5372583 13.2 8 12.6627417 8 12 8 11.3372583 8.5372583 10.8 9.2 10.8L22.8 10.8zM2.4 18C3.7254834 18 4.8 19.0745166 4.8 20.4 4.8 21.7254834 3.7254834 22.8 2.4 22.8 1.0745166 22.8 9.32587341e-15 21.7254834 9.32587341e-15 20.4 9.32587341e-15 19.0745166 1.0745166 18 2.4 18zM22.8 19.2C23.4627417 19.2 24 19.7372583 24 20.4 24 21.0627417 23.4627417 21.6 22.8 21.6L9.2 21.6C8.5372583 21.6 8 21.0627417 8 20.4 8 19.7372583 8.5372583 19.2 9.2 19.2L22.8 19.2z"/>
</svg>
